X:1
T:Title
%%score ( 1 2 ) { 3 | 4 }
L:1/8
Q:1/4=102
M:4/4
K:Ab
V:1 treble nm="Grand Piano, Soprano"
V:2 treble 
V:3 bass nm="Choir Pad, Closer to Thee (Ashley)"
V:4 bass 
V:1
 [CE]2 [CA]2 [Ec]3 [EA] | .B2 z2 z4 | [CE]2 [CA]2 [Fd]3 [Ec] | .B2 .G2 B4 | %4
w: By~J.~P.~Vance * * *||||
 [CE]2 [CA]2 [Ec]3 [EA] | .B2 z2 z4 | [CA]2 [Ec]2 [Ee]3 [Fd] | [Ec]2 [DB]2 [CA]4 | E2 E2 E3 E | %9
w: |||||
 [EB]2 [EA]2 [EA]2 [EG]2 | E2 E2 E3 E | [EB]2 [EA]2 [EG]4 | [CE]2 [CA]2 [Ec]3 [EA] | .B2 z2 z4 | %14
w: |||||
 [CA]2 [Ec]2 [Ee]3 [Fd] | [Ec]2 [EB]2 [EA]4 | [EG]4 [EG]3 [EA] | [GB]6 E2 | [EA]4 [EA]3 [EB] | %19
w: |||||
 [Ec]6 [Ec][Fd] | [Ee]3 [Ee] [Fd]2 [Ec]2 | [FB]4 F4 | E2- [EG]2 [Gc]3 [GB] | A8 |] %24
w: |||||
V:2
 x8 | F-[FA][EG][DF] [CE]2 [CE]2 | x8 | =D-[DA]D-[DA] E2 _D2 | x8 | F-[FA][EG][DF] [CE]2 [A,C]2 | %6
 x8 | x8 | x8 | x8 | x8 | x8 | x8 | F-[FA][EG][DF] [CE]2 [A,C]2 | x8 | x8 | x8 | x8 | x8 | x8 | %20
 x8 | x8 | A2 z2 z4 | x8 |] %24
V:3
 A,2 E,2 A,3 A, | A,2 A,A, A,2 A,2 | A,2 A,2 A,3 A, | A,2 A,2 G,4 | A,2 A,2 A,3 A, | %5
 A,2 A,2 A,2 A,2 | A,2 A,2 A,3 A, | A,2 G,2 A,4 | E,2 E,2 E,3 E, | D2 C2 C2 B,2 | E,2 E,2 E,3 E, | %11
 D2 C2 B,4 | A,2 A,2 A,3 A, | A,2 A,2 A,2 E,2 | A,2 A,2 A,3 A, | A,2[K:treble] D2 C4 | B,4 B,3 C | %17
 D6[K:bass] G,2 | A,4 A,3 G, | A,6 A,B, | C3 C A,2 A,2 | D4 A,4 | C2 B,2 E3 D | C8 |] %24
V:4
 A,,2 A,,2 A,,3 C, | D,2 D,D, z4 | z4 A,,3 A,, | B,,2 B,,2 E,4 | z4 z2 z C, | D,2 D,2 z4 | %6
 z4 C,3 D, | E,2 E,2 A,,4 | z8 | E,2 E,2 E,2 E,2 | z8 | E,2 E,2 E,4 | z4 A,,3 C, | %13
 D,2 D,2 A,,2 A,,2 | A,,2 A,,2 C,3 D, | E,2 E,2 A,,4 | E,4 E,3 E, | E,6 D,2 | C,4 C,3 E, | %19
 z4 z2 z A, | A,3 A, z4 | D,4 D,4 | E,4 E,3 E, | [A,,E,]8 |] %24

